X: 11132
P: Strathspey.
M: C
L: 1/8
K: A
|:\
a>ge>c d<eg<a | e<gg>B G2GB |\
|: c |\
(A<E)(A>c) A<EA>c | B>cdB G2GB |\
a>ge>c d<eg<a | eggB G2GB |\


